X: 14053
T: MARY O'BRIEN
C: Bob McQuillen 1 Dec.'08
B: Bob's Note Book 14 #53
%R: reel
%D:2008
Z: 2020 John Chambers <jc:trillian.mit.edu>
M: C
L: 1/8
K: D
A2 \
| dAFA BdAG | FABA FDFA | G2BG FAdf edcB A2Bc |
| dAFA GBAG | FAdB AFDF | GBed cABc | d2f2 d2 :|
|: fg \
| a2ag fdAG | FAdc d2fa | g2ge cAdf | efec AGFE |
| DFAF G2AG | FABA d2AG | FAdf geag | f2d2 d2 :|
%%begintext align
%% I've run into this very dear woman at so
%% many dances that I've lost track, but I sure
%% haven't lost track of her. So here's your very
%% own tune, Mary, and I sure hope you like
%% it!  All the best, from Bob--
%%endtext

%%sep 1 1 500

%%sep 1 1 500

